packages/foundations/assets/icons/functional/images/file/cloud_upload_14.svg

<svg width="14" height="14" viewBox="0 0 14 14" fill="none" xmlns="http://www.w3.org/2000/svg">
<g clip-path="url(#clip0_185_899)">
<path fill-rule="evenodd" clip-rule="evenodd" d="M8.40002 2.275C10.333 2.275 11.9 3.842 11.9 5.775L11.8909 6.0151L11.951 6.08235C12.2923 6.49121 12.5122 6.99146 12.5787 7.52867L12.5952 7.70904L12.6 7.875C12.6 9.31233 11.5141 10.5054 10.0874 10.6593L9.94363 10.6711L9.79932 10.6712C9.41328 10.6714 9.10019 10.3585 9.10002 9.9725C9.10002 9.9724 9.10002 9.9726 9.10002 9.9725C9.10002 9.58624 9.41307 9.27278 9.79932 9.27264L9.88293 9.27261C10.585 9.23193 11.1444 8.6745 11.1961 7.98014L11.2 7.875C11.2 7.499 11.0517 7.14847 10.7939 6.88916L10.704 6.8062L10.3959 6.54559L10.467 6.1484C10.4889 6.02625 10.5 5.9015 10.5 5.775C10.5 4.6152 9.55982 3.675 8.40002 3.675C7.68 3.675 7.02497 4.03991 6.64233 4.6273L6.5695 4.7477L6.32766 5.17933L5.84007 5.09539C5.76154 5.08187 5.68138 5.075 5.60002 5.075C5.01783 5.075 4.50523 5.43371 4.29699 5.96084L4.25947 6.06845L4.15078 6.42639L3.79282 6.53495C3.20808 6.71229 2.80002 7.25405 2.80002 7.875C2.80002 8.61305 3.37114 9.21772 4.09554 9.27116L4.20002 9.275C4.58643 9.275 4.90002 9.58825 4.90002 9.97465C4.90002 10.3612 4.58689 10.6746 4.20037 10.675C2.70084 10.675 1.47627 9.49622 1.40345 8.01475L1.40002 7.875C1.40002 6.82634 1.98154 5.89113 2.86748 5.41168L2.99609 5.34632L3.04782 5.3228L3.07112 5.27121C3.48577 4.40065 4.32789 3.79421 5.30252 3.69072L5.45747 3.67859L5.60002 3.675L5.72774 3.51543C6.34602 2.78306 7.41398 2.32143 8.40002 2.275ZM7.00002 6.475L7.05269 6.47695L7.14053 6.48917L7.21852 6.50982L7.29628 6.54057L7.36452 6.5772L7.43784 6.62878L7.495 6.68003L8.545 7.73003C8.81837 8.00339 8.81837 8.44661 8.545 8.71998C8.31602 8.94895 7.96789 8.98613 7.70021 8.83153L7.70002 11.025C7.70002 11.4116 7.38662 11.725 7.00002 11.725C6.64104 11.725 6.34517 11.4571 6.30473 11.109L6.30002 11.025L6.30052 8.83113C6.05732 8.97197 5.7475 8.95433 5.52099 8.77821L5.45505 8.71998C5.20271 8.46764 5.1833 8.07058 5.39682 7.79597L5.45505 7.73003L6.50505 6.68003C6.52983 6.65525 6.556 6.63272 6.58331 6.61244L6.66118 6.56227L6.74009 6.52486L6.81383 6.50009L6.8961 6.48271L6.937 6.4778L7.00002 6.475Z" fill="#1A1C1F"/>
</g>
<defs>
<clipPath id="clip0_185_899">
<rect width="14" height="14" fill="white"/>
</clipPath>
</defs>
</svg>

<svg xmlns="http://www.w3.org/2000/svg" width="14" height="14" fill="none"><g clip-path="url(#a)"><path fill="#1A1C1F" fill-rule="evenodd" d="M8.4 2.275a3.5 3.5 0 0 1 3.5 3.5l-.01.24.061.067c.341.41.561.91.628 1.447l.016.18.005.166a2.803 2.803 0 0 1-2.513 2.784l-.143.012h-.145a.7.7 0 0 1 0-1.399h.084a1.4 1.4 0 0 0 1.313-1.292l.004-.105c0-.376-.148-.727-.406-.986l-.09-.083-.308-.26.071-.398q.033-.183.033-.373a2.1 2.1 0 0 0-3.858-1.148l-.073.12-.241.432-.488-.084a1.402 1.402 0 0 0-1.543.865l-.038.108-.108.358-.358.109a1.4 1.4 0 0 0 .303 2.736l.104.004a.7.7 0 0 1 0 1.4 2.8 2.8 0 0 1-2.797-2.66l-.003-.14c0-1.049.582-1.984 1.467-2.463l.13-.066.05-.023.024-.052a2.8 2.8 0 0 1 2.232-1.58l.154-.012.143-.004.128-.16c.618-.732 1.686-1.194 2.672-1.24M7 6.475l.053.002.088.012.078.02.077.032.069.036.073.052.057.051 1.05 1.05A.7.7 0 0 1 7.7 8.832v2.193a.7.7 0 0 1-1.395.084l-.005-.084V8.831a.7.7 0 0 1-.779-.053l-.066-.058a.7.7 0 0 1-.058-.924l.058-.066 1.05-1.05a1 1 0 0 1 .078-.068l.078-.05.08-.037.073-.025.082-.017.041-.005z" clip-rule="evenodd"/></g><defs><clipPath id="a"><path fill="#fff" d="M0 0h14v14H0z"/></clipPath></defs></svg>
